X:1
T:Title
%%score { ( 1 3 ) | 2 }
L:1/8
Q:1/4=100
M:4/4
K:Ab
V:1 treble nm="Grand Piano"
V:3 treble 
V:2 treble 
V:1
 c3 c d2 c2 | [GB]2 _c2 =c2 E2 | E2 F2 G2 A2 | =A3 B B4 | c3 c d2 c2 | [GB]2 _c2 =c2 A2 | %6
w: Edwin~A.~Bedell * * *||||||
 c3 c B2 e2 | [B,EG]2 [A,=DF]2 [G,E]4 | [EGc]2 [DGB]2 [DGB]3 [EGc] | B2 A2 f2 e2 | %10
w: ||||
 [Gc]3 [GB] [GB]2 [Gc]2 | B2 A2 [_cf]2 [=ce]2 | c3 c e2 A2 | z2 e2 z4 | e2 d2 [EAc]2 [CA]2 | %15
w: |||||
[M:8/4] .A4 z4 z8 |[M:4/4] A8 | [CA]8 |] %18
w: |||
V:2
 [A,EA]3 [A,EA] [A,FA]2 [A,EA]2 | [E,D]2 [E,DE]2 [A,CE]2 [A,C]2 | %2
 [A,C]2[K:treble] [A,CE]2 [A,CE]2 [A,CE]2 | [G,DE]3 [G,DE] [G,DE]4 | %4
 [A,CE]3 [A,EA] [A,FA]2 [A,EA]2 | [E,D]2 [E,DE]2[K:treble] [A,CE]2 [A,CE]2 | %6
 [=A,E_G]3 [A,EG] [B,E=G]2 [B,G]2 | B,,2 B,,2 E,4 | E,2 E,2 E,3 E, | %9
 [A,DG]2 [A,C]2 [A,DA]2 [A,CA]2 | [E,E]3 [E,D] [E,D]2 [E,E]2 | [A,DG]2 [A,C]2 [A,=D]2 [A,E]2 | %12
 [A,E_G]3 [A,EG] [A,CG]2 [CEG]2 | [DF]2 .[CEA]2 [B,EG]2 [A,EA]2 | %14
 [=A,C_G]2 [B,DF]2[K:bass] E,2 E,2 |[M:8/4] E,3 [A,C] [A,C]4 z8 |[M:4/4] [D,F,D]8 | [A,,E,]8 |] %18
V:3
 x8 | x8 | x8 | x8 | x8 | x8 | x8 | x8 | x8 | x8 | x8 | x8 | x8 | f2 z E d2 c2 | x8 | %15
[M:8/4] [DB]2- [DGB]A A4 z8 |[M:4/4] x8 | x8 |] %18

